src/gui/emoticons/eye.svg

<svg xmlns="http://www.w3.org/2000/svg" xmlns:xlink="http://www.w3.org/1999/xlink" width="16pt" height="16pt" version="1.1" viewBox="0 0 16 16"><defs><clipPath id="clip1"><path d="M 0 3 L 16 3 L 16 13 L 0 13 Z M 0 3"/></clipPath><clipPath id="clip2"><path d="M 15.453125 8.234375 C 15.453125 8.234375 13.839844 12.921875 8.011719 12.921875 C 2.179688 12.921875 0.566406 8.234375 0.566406 8.234375 C 0.566406 8.234375 1.453125 7.046875 1.625 6.710938 C 2.273438 5.453125 4.5 3.566406 8.011719 3.421875 C 11.183594 3.289062 13.644531 5.304688 14.417969 6.671875 C 14.6875 7.148438 15.453125 8.234375 15.453125 8.234375 Z M 15.453125 8.234375"/></clipPath><filter id="alpha" width="100%" height="100%" x="0%" y="0%" filterUnits="objectBoundingBox"><feColorMatrix in="SourceGraphic" type="matrix" values="0 0 0 0 1 0 0 0 0 1 0 0 0 0 1 0 0 0 1 0"/></filter><mask id="mask0"><g filter="url(#alpha)"><rect width="16" height="16" x="0" y="0" style="fill:#000;fill-opacity:.2;stroke:none"/></g></mask><clipPath id="clip3"><rect width="16" height="16" x="0" y="0"/></clipPath><g id="surface5" clip-path="url(#clip3)"><path style="stroke:none;fill-rule:nonzero;fill:#424242;fill-opacity:1" d="M 8 2.835938 C 12.128906 2.835938 14.414062 6.320312 15.015625 7.386719 C 15.132812 7.589844 15.035156 7.933594 14.992188 8.035156 L 14.980469 8.070312 C 14.976562 8.082031 14.601562 9.152344 13.558594 10.230469 C 12.152344 11.683594 10.289062 12.421875 8.011719 12.421875 C 5.75 12.421875 3.894531 11.695312 2.492188 10.261719 C 1.527344 9.273438 1.113281 8.265625 1.050781 8.097656 C 0.988281 7.792969 0.972656 7.425781 1.011719 7.328125 C 1.554688 6.273438 3.65625 2.835938 8 2.835938 M 8 2.335938 C 3.472656 2.335938 1.214844 5.839844 0.566406 7.097656 C 0.394531 7.429688 0.566406 8.234375 0.566406 8.234375 C 0.566406 8.234375 2.179688 12.921875 8.011719 12.921875 C 13.839844 12.921875 15.453125 8.234375 15.453125 8.234375 C 15.453125 8.234375 15.722656 7.613281 15.453125 7.140625 C 14.679688 5.773438 12.246094 2.335938 8 2.335938 Z M 8 2.335938"/></g><linearGradient id="linear0" x1="64" x2="64" y1="96.869" y2="34.869" gradientTransform="matrix(0.125,0,0,0.125,0,0)" gradientUnits="userSpaceOnUse"><stop offset="0" style="stop-color:#b27e60;stop-opacity:1"/><stop offset=".168" style="stop-color:#ac795d;stop-opacity:1"/><stop offset=".396" style="stop-color:#9b6d54;stop-opacity:1"/><stop offset=".658" style="stop-color:#7e5846;stop-opacity:1"/><stop offset=".944" style="stop-color:#573a32;stop-opacity:1"/><stop offset="1" style="stop-color:#4e342e;stop-opacity:1"/></linearGradient><mask id="mask1"><g filter="url(#alpha)"><rect width="16" height="16" x="0" y="0" style="fill:#000;fill-opacity:.2;stroke:none"/></g></mask><clipPath id="clip4"><rect width="16" height="16" x="0" y="0"/></clipPath><g id="surface8" clip-path="url(#clip4)"><path style="stroke:none;fill-rule:nonzero;fill:#424242;fill-opacity:1" d="M 8 4.734375 C 9.929688 4.734375 11.5 6.304688 11.5 8.234375 C 11.5 10.164062 9.929688 11.734375 8 11.734375 C 6.070312 11.734375 4.5 10.164062 4.5 8.234375 C 4.5 6.304688 6.070312 4.734375 8 4.734375 M 8 4.359375 C 5.859375 4.359375 4.125 6.09375 4.125 8.234375 C 4.125 10.375 5.859375 12.109375 8 12.109375 C 10.140625 12.109375 11.875 10.375 11.875 8.234375 C 11.875 6.09375 10.140625 4.359375 8 4.359375 Z M 8 4.359375"/></g><clipPath id="clip5"><path d="M 0 3 L 16 3 L 16 9 L 0 9 Z M 0 3"/></clipPath><clipPath id="clip6"><path d="M 15.421875 8.066406 C 14.910156 6.777344 12.828125 3.082031 8.054688 3.078125 L 8.050781 3.078125 C 8.050781 3.078125 8.046875 3.078125 8.046875 3.078125 C 8.03125 3.078125 8.015625 3.078125 8 3.078125 C 7.984375 3.078125 7.96875 3.078125 7.953125 3.078125 L 7.949219 3.078125 C 7.949219 3.078125 7.945312 3.078125 7.945312 3.078125 C 3.171875 3.082031 1.089844 6.777344 0.578125 8.066406 C 0.570312 8.097656 0.535156 8.210938 0.542969 8.28125 C 0.546875 8.328125 0.550781 8.335938 0.566406 8.359375 C 0.582031 8.378906 0.632812 8.375 0.671875 8.324219 C 1.761719 6.9375 3.980469 4.171875 7.949219 4.171875 C 7.964844 4.171875 7.984375 4.171875 8 4.171875 C 8.015625 4.171875 8.03125 4.171875 8.050781 4.171875 C 12.019531 4.171875 14.238281 6.9375 15.328125 8.324219 C 15.367188 8.375 15.417969 8.378906 15.433594 8.359375 C 15.449219 8.335938 15.453125 8.328125 15.457031 8.28125 C 15.464844 8.210938 15.429688 8.097656 15.421875 8.066406 Z M 15.421875 8.066406"/></clipPath><mask id="mask2"><g filter="url(#alpha)"><rect width="16" height="16" x="0" y="0" style="fill:#000;fill-opacity:.2;stroke:none"/></g></mask><clipPath id="clip7"><rect width="16" height="16" x="0" y="0"/></clipPath><g id="surface11" clip-path="url(#clip7)"><path style="stroke:none;fill-rule:nonzero;fill:#424242;fill-opacity:1" d="M 7.953125 3.578125 L 7.960938 3.578125 C 7.972656 3.578125 7.984375 3.578125 8.003906 3.578125 C 8.015625 3.578125 8.027344 3.578125 8.039062 3.578125 L 8.054688 3.578125 C 9.976562 3.582031 11.640625 4.214844 12.996094 5.460938 C 14.140625 6.511719 14.714844 7.683594 14.910156 8.148438 C 14.144531 8.785156 10.984375 11.234375 7.71875 11.234375 C 7.6875 11.234375 7.6875 11.234375 6.3125 11.359375 C 5.734375 11.414062 5.089844 11.472656 4.972656 11.484375 C 1.882812 11.476562 1.199219 9.046875 1.0625 8.296875 C 1.058594 8.28125 1.054688 8.261719 1.050781 8.234375 C 1.203125 7.851562 1.773438 6.585938 3 5.460938 C 4.359375 4.214844 6.019531 3.582031 7.945312 3.578125 L 7.953125 3.578125 M 8.054688 3.078125 L 8.050781 3.078125 C 8.050781 3.078125 8.046875 3.078125 8.046875 3.078125 C 8.03125 3.078125 8.015625 3.078125 8 3.078125 C 7.984375 3.078125 7.96875 3.078125 7.953125 3.078125 L 7.949219 3.078125 C 7.949219 3.078125 7.945312 3.078125 7.945312 3.078125 C 3.171875 3.082031 1.089844 6.777344 0.578125 8.066406 C 0.570312 8.097656 0.535156 8.210938 0.542969 8.28125 C 0.546875 8.328125 0.550781 8.335938 0.566406 8.359375 C 0.582031 8.378906 1.023438 11.984375 4.988281 11.984375 L 4.992188 11.984375 C 5.011719 11.984375 7.703125 11.734375 7.71875 11.734375 L 7.722656 11.734375 C 11.691406 11.734375 15.421875 8.378906 15.433594 8.359375 C 15.449219 8.335938 15.457031 8.328125 15.460938 8.28125 C 15.464844 8.210938 15.433594 8.09375 15.421875 8.066406 C 14.910156 6.777344 12.828125 3.085938 8.054688 3.078125 Z M 8.054688 3.078125"/></g></defs><g id="surface1"><path style="stroke:none;fill-rule:nonzero;fill:#fff;fill-opacity:1" d="M 15.453125 8.234375 C 15.453125 8.234375 13.839844 12.921875 8.011719 12.921875 C 2.179688 12.921875 0.566406 8.234375 0.566406 8.234375 C 0.566406 8.234375 2.285156 3.078125 8.011719 3.078125 C 13.734375 3.078125 15.453125 8.234375 15.453125 8.234375 Z M 15.453125 8.234375"/><g clip-path="url(#clip1)" clip-rule="nonzero"><g clip-path="url(#clip2)" clip-rule="nonzero"><use mask="url(#mask0)" xlink:href="#surface5"/></g></g><path style="stroke:none;fill-rule:nonzero;fill:url(#linear0)" d="M 11.875 8.234375 C 11.875 10.375 10.140625 12.109375 8 12.109375 C 5.859375 12.109375 4.125 10.375 4.125 8.234375 C 4.125 6.09375 5.859375 4.359375 8 4.359375 C 10.140625 4.359375 11.875 6.09375 11.875 8.234375 Z M 11.875 8.234375"/><use mask="url(#mask1)" xlink:href="#surface8"/><path style="stroke:none;fill-rule:nonzero;fill:#212121;fill-opacity:1" d="M 9.804688 8.234375 C 9.804688 9.230469 8.996094 10.039062 8 10.039062 C 7.003906 10.039062 6.195312 9.230469 6.195312 8.234375 C 6.195312 7.238281 7.003906 6.429688 8 6.429688 C 8.996094 6.429688 9.804688 7.238281 9.804688 8.234375 Z M 9.804688 8.234375"/><path style="stroke:none;fill-rule:nonzero;fill:#eee;fill-opacity:1" d="M 6.796875 6.929688 C 6.796875 7.429688 6.394531 7.832031 5.894531 7.832031 C 5.398438 7.832031 4.992188 7.429688 4.992188 6.929688 C 4.992188 6.429688 5.398438 6.027344 5.894531 6.027344 C 6.394531 6.027344 6.796875 6.429688 6.796875 6.929688 Z M 6.796875 6.929688"/><path style="stroke:none;fill-rule:nonzero;fill:#424242;fill-opacity:1" d="M 15.421875 8.066406 C 14.910156 6.777344 12.828125 3.082031 8.054688 3.078125 L 8.050781 3.078125 C 8.050781 3.078125 8.046875 3.078125 8.046875 3.078125 C 8.03125 3.078125 8.015625 3.078125 8 3.078125 C 7.984375 3.078125 7.96875 3.078125 7.953125 3.078125 L 7.949219 3.078125 C 7.949219 3.078125 7.945312 3.078125 7.945312 3.078125 C 3.171875 3.082031 1.089844 6.777344 0.578125 8.066406 C 0.570312 8.097656 0.535156 8.210938 0.542969 8.28125 C 0.546875 8.328125 0.550781 8.335938 0.566406 8.359375 C 0.582031 8.378906 0.632812 8.375 0.671875 8.324219 C 1.761719 6.9375 3.980469 4.171875 7.949219 4.171875 C 7.964844 4.171875 7.984375 4.171875 8 4.171875 C 8.015625 4.171875 8.03125 4.171875 8.050781 4.171875 C 12.019531 4.171875 14.238281 6.9375 15.328125 8.324219 C 15.367188 8.375 15.417969 8.378906 15.433594 8.359375 C 15.449219 8.335938 15.453125 8.328125 15.457031 8.28125 C 15.464844 8.210938 15.429688 8.097656 15.421875 8.066406 Z M 15.421875 8.066406"/><g clip-path="url(#clip5)" clip-rule="nonzero"><g clip-path="url(#clip6)" clip-rule="nonzero"><use mask="url(#mask2)" xlink:href="#surface11"/></g></g></g></svg>

<svg xmlns="http://www.w3.org/2000/svg" xmlns:xlink="http://www.w3.org/1999/xlink" width="16pt" height="16pt" viewBox="0 0 16 16"><defs><clipPath id="e"><path d="M0 3h16v10H0Zm0 0"/></clipPath><clipPath id="f"><path d="M15.453 8.234s-1.613 4.688-7.441 4.688C2.18 12.922.566 8.234.566 8.234s.887-1.187 1.059-1.523C2.273 5.453 4.5 3.566 8.012 3.42c3.172-.132 5.633 1.884 6.406 3.25.27.477 1.035 1.563 1.035 1.563m0 0"/></clipPath><clipPath id="b"><path d="M0 0h16v16H0z"/></clipPath><clipPath id="c"><path d="M0 0h16v16H0z"/></clipPath><clipPath id="l"><path d="M0 3h16v6H0Zm0 0"/></clipPath><clipPath id="m"><path d="M15.422 8.066c-.512-1.289-2.594-4.984-7.367-4.988h-.11c-4.773.004-6.855 3.7-7.367 4.988-.008.032-.043.145-.035.215.004.047.008.055.023.078.016.02.067.016.106-.035 1.09-1.386 3.308-4.152 7.277-4.152h.101c3.97 0 6.188 2.766 7.278 4.152.04.051.09.055.106.035.015-.023.02-.03.023-.078.008-.07-.027-.183-.035-.215m0 0"/></clipPath><clipPath id="d"><path d="M0 0h16v16H0z"/></clipPath><mask id="g"><g filter="url(#a)"><path d="M0 0h16v16H0z" style="fill:#000;fill-opacity:.2;stroke:none"/></g></mask><mask id="j"><g filter="url(#a)"><path d="M0 0h16v16H0z" style="fill:#000;fill-opacity:.2;stroke:none"/></g></mask><mask id="n"><g filter="url(#a)"><path d="M0 0h16v16H0z" style="fill:#000;fill-opacity:.2;stroke:none"/></g></mask><g id="h" clip-path="url(#b)"><path d="M8 2.836c4.129 0 6.414 3.484 7.016 4.55.117.204.02.548-.024.65l-.012.034c-.003.012-.378 1.082-1.421 2.16-1.407 1.454-3.27 2.192-5.547 2.192-2.262 0-4.117-.727-5.52-2.16-.965-.989-1.379-1.996-1.441-2.164-.063-.305-.078-.672-.04-.77C1.556 6.273 3.657 2.836 8 2.836m0-.5c-4.527 0-6.785 3.504-7.434 4.762-.171.332 0 1.136 0 1.136s1.614 4.688 7.446 4.688c5.828 0 7.441-4.688 7.441-4.688s.27-.62 0-1.093C14.68 5.773 12.246 2.336 8 2.336m0 0" style="stroke:none;fill-rule:nonzero;fill:#424242;fill-opacity:1"/></g><g id="k" clip-path="url(#c)"><path d="M8 4.734c1.93 0 3.5 1.57 3.5 3.5s-1.57 3.5-3.5 3.5-3.5-1.57-3.5-3.5 1.57-3.5 3.5-3.5m0-.375a3.874 3.874 0 1 0 0 7.75 3.874 3.874 0 1 0 0-7.75m0 0" style="stroke:none;fill-rule:nonzero;fill:#424242;fill-opacity:1"/></g><g id="o" clip-path="url(#d)"><path d="M7.953 3.578h.102c1.922.004 3.586.637 4.941 1.883a8 8 0 0 1 1.914 2.687c-.765.637-3.926 3.086-7.191 3.086-.032 0-.032 0-1.407.125-.578.055-1.222.114-1.34.125-3.09-.007-3.773-2.437-3.91-3.187l-.011-.063c.152-.382.722-1.648 1.949-2.773 1.36-1.246 3.02-1.879 4.945-1.883zm.102-.5h-.11c-4.773.004-6.855 3.7-7.367 4.988-.008.032-.043.145-.035.215.004.047.008.055.023.078.016.02.457 3.625 4.422 3.625h.004c.02 0 2.711-.25 2.727-.25h.004c3.968 0 7.699-3.355 7.71-3.375.016-.023.024-.03.028-.078a.7.7 0 0 0-.04-.215c-.51-1.289-2.593-4.98-7.366-4.988m0 0" style="stroke:none;fill-rule:nonzero;fill:#424242;fill-opacity:1"/></g><linearGradient id="i" x1="64" x2="64" y1="96.869" y2="34.869" gradientTransform="scale(.125)" gradientUnits="userSpaceOnUse"><stop offset="0" style="stop-color:#b27e60;stop-opacity:1"/><stop offset=".168" style="stop-color:#ac795d;stop-opacity:1"/><stop offset=".396" style="stop-color:#9b6d54;stop-opacity:1"/><stop offset=".658" style="stop-color:#7e5846;stop-opacity:1"/><stop offset=".944" style="stop-color:#573a32;stop-opacity:1"/><stop offset="1" style="stop-color:#4e342e;stop-opacity:1"/></linearGradient><filter id="a" width="100%" height="100%" x="0%" y="0%" filterUnits="objectBoundingBox"><feColorMatrix in="SourceGraphic" values="0 0 0 0 1 0 0 0 0 1 0 0 0 0 1 0 0 0 1 0"/></filter></defs><path d="M15.453 8.234s-1.613 4.688-7.441 4.688C2.18 12.922.566 8.234.566 8.234s1.72-5.156 7.446-5.156c5.722 0 7.441 5.156 7.441 5.156m0 0" style="stroke:none;fill-rule:nonzero;fill:#fff;fill-opacity:1"/><g clip-path="url(#e)"><g clip-path="url(#f)"><use xlink:href="#h" mask="url(#g)"/></g></g><path d="M11.875 8.234a3.874 3.874 0 1 1-7.75 0 3.874 3.874 0 1 1 7.75 0m0 0" style="stroke:none;fill-rule:nonzero;fill:url(#i)"/><use xlink:href="#k" mask="url(#j)"/><path d="M9.805 8.234a1.805 1.805 0 1 1-3.611-.001 1.805 1.805 0 0 1 3.61.001m0 0" style="stroke:none;fill-rule:nonzero;fill:#212121;fill-opacity:1"/><path d="M6.797 6.93a.903.903 0 1 1-1.804 0 .903.903 0 0 1 1.804 0m0 0" style="stroke:none;fill-rule:nonzero;fill:#eee;fill-opacity:1"/><path d="M15.422 8.066c-.512-1.289-2.594-4.984-7.367-4.988h-.11c-4.773.004-6.855 3.7-7.367 4.988-.008.032-.043.145-.035.215.004.047.008.055.023.078.016.02.067.016.106-.035 1.09-1.386 3.308-4.152 7.277-4.152h.101c3.97 0 6.188 2.766 7.278 4.152.04.051.09.055.106.035.015-.023.02-.03.023-.078.008-.07-.027-.183-.035-.215m0 0" style="stroke:none;fill-rule:nonzero;fill:#424242;fill-opacity:1"/><g clip-path="url(#l)"><g clip-path="url(#m)"><use xlink:href="#o" mask="url(#n)"/></g></g></svg>
